X: 51
T:Wilk's Rigg. JWDM.50
T:De'ils away with the Exiseman,aka. JWDM.50
T:morris
M:6/8
L:1/8
S:J.Winder MS,Wyresdale,Lancs.,1789
R:Jig
O:England
A:Lancashire
N:a.k.a.Morris tune.
Z:vmp.Taz Tarry
K:D
ded A2f|g2f e2d|ded A2A|B3 d3:||:d2f a2f|g2f e2d|!d2f a2g|f3 a2a|b2g e2f
